brandFactory_export/1.Light/Paragüas _1Light.svg

<?xml version="1.0" encoding="UTF-8"?>
<svg width="24px" height="24px" viewBox="0 0 24 24" version="1.1" xmlns="http://www.w3.org/2000/svg" xmlns:xlink="http://www.w3.org/1999/xlink">
    <title>1.Light/Paragüas _1Light</title>
    <g id="Symbols" stroke="none" stroke-width="1" fill="none" fill-rule="evenodd">
        <g id="1.Light/Paragüas-_1Light" fill="#5CB615" fill-rule="nonzero">
            <path d="M22.5109244,11.1058824 C22.389916,11.2470588 22.2184874,11.3243697 22.0268908,11.3243697 L19.5966387,11.3176471 C18.7697479,6.37310924 16.302521,3.86218487 14.389916,2.63865546 C16.7831933,3.00504202 18.7092437,3.90252101 20.1210084,5.34117647 C21.4184874,6.66554622 22.2621849,8.44369748 22.6386555,10.6252101 C22.6655462,10.7932773 22.6151261,10.9714286 22.5109244,11.1058824 L22.5109244,11.1058824 Z M12.4504202,2.74957983 C13.9731092,3.36134454 17.5193277,5.40840336 18.5647059,11.3142857 L12.4504202,11.297479 L12.4504202,2.74957983 Z M5.12268908,11.2806723 C6.12436975,5.56302521 9.96302521,3.36806723 11.4386555,2.72941176 L11.4386555,11.2941176 L5.12268908,11.2806723 Z M1.34117647,11.1731092 C1.29411765,11.1428571 1.24033613,11.0957983 1.19327731,11.0453782 C1.07563025,10.9008403 1.02521008,10.7226891 1.05210084,10.5546218 C1.43865546,8.37647059 2.30252101,6.60504202 3.61344538,5.29411765 C5.0789916,3.81512605 7.09579832,2.91764706 9.61344538,2.59495798 C7.64033613,3.85210084 4.8907563,6.44369748 4.09411765,11.2773109 L1.67731092,11.2705882 C1.56302521,11.2672269 1.43865546,11.2336134 1.34117647,11.1731092 Z M23.6336134,10.4571429 C23.2268908,8.07731092 22.2890756,6.12436975 20.8470588,4.6487395 C18.8806723,2.64201681 16.0605042,1.5697479 12.4504202,1.45882353 L12.4504202,0.500840336 C12.4504202,0.225210084 12.2252101,0 11.9428571,0 C11.6638655,0 11.4352941,0.225210084 11.4352941,0.500840336 L11.4352941,1.46554622 C7.76806723,1.52941176 4.88739496,2.57815126 2.8907563,4.59831933 C1.43193277,6.05378151 0.477310924,8.00336134 0.0537815126,10.3831933 C-0.0268907563,10.8336134 0.100840336,11.3042017 0.416806723,11.6907563 C0.544537815,11.8319328 0.668907563,11.9394958 0.803361345,12.0235294 C1.05546218,12.1781513 1.36134454,12.2655462 1.66722689,12.2689076 L11.4352941,12.292437 L11.4352941,21.1462185 C11.4453782,22.5142857 12.5781513,23.6235294 13.9697479,23.6235294 C15.3647059,23.6235294 16.5008403,22.5042017 16.5008403,21.1294118 C16.5008403,20.8537815 16.2756303,20.6285714 15.9932773,20.6285714 C15.7142857,20.6285714 15.4857143,20.8537815 15.4857143,21.1294118 C15.4857143,21.9529412 14.8033613,22.6252101 13.9663866,22.6252101 C13.1294118,22.6252101 12.4470588,21.9529412 12.4470588,21.1294118 L12.4470588,12.2991597 L22.0201681,12.3260504 C22.5109244,12.3260504 22.9714286,12.1142857 23.2907563,11.7378151 C23.589916,11.3680672 23.7142857,10.9008403 23.6336134,10.4571429 Z" id="Paragüas-_1Light"></path>
        </g>
    </g>
</svg>

<svg width="24" height="24" viewBox="0 0 24 24" xmlns="http://www.w3.org/2000/svg"><path d="M22.51 11.106a.626.626 0 01-.483.218l-2.43-.006c-.827-4.945-3.294-7.456-5.207-8.68 2.393.367 4.32 1.265 5.731 2.703 1.297 1.325 2.141 3.103 2.518 5.284a.635.635 0 01-.128.48zM12.45 2.75c1.523.611 5.07 2.658 6.115 8.564l-6.115-.017V2.75zm-7.327 8.53c1.001-5.717 4.84-7.912 6.316-8.55v8.564l-6.316-.013zm-3.782-.107a.625.625 0 01-.29-.618c.388-2.179 1.252-3.95 2.562-5.26 1.466-1.48 3.483-2.377 6-2.7-1.973 1.257-4.722 3.849-5.519 8.682l-2.417-.006a.697.697 0 01-.336-.098zm22.293-.716c-.407-2.38-1.345-4.333-2.787-5.808-1.966-2.007-4.786-3.08-8.397-3.19V.5c0-.276-.225-.501-.507-.501a.506.506 0 00-.508.5v.966c-3.667.063-6.548 1.112-8.544 3.132C1.43 6.054.477 8.003.054 10.383c-.08.45.047.921.363 1.308.128.14.252.248.386.333.252.154.558.242.864.245l9.768.023v8.854c.01 1.368 1.143 2.478 2.535 2.478 1.395 0 2.53-1.12 2.53-2.495 0-.275-.224-.5-.507-.5a.506.506 0 00-.507.5c0 .824-.683 1.496-1.52 1.496s-1.519-.672-1.519-1.496V12.3l9.573.027c.49 0 .951-.212 1.27-.588.3-.37.424-.837.344-1.28z" fill="#5CB615" fill-rule="nonzero"/></svg>
